map_marker_monochrome/openmoji_carp_streamer.svg

<svg xmlns="http://www.w3.org/2000/svg" width="24" height="24" viewBox="0 0 24 24"> <g transform="translate(2.25 0.0) scale(0.375)">
  
  <g
     id="line"
     transform="translate(-15,-4)">
    <line
       x1="18"
       x2="18"
       y1="67"
       y2="8"
       fill="none"
       stroke="#000"
       stroke-linecap="round"
       stroke-linejoin="round"
       stroke-width="2"
       id="line2" />
    <circle
       cx="18"
       cy="7"
       r="1"
       stroke="#000"
       stroke-linecap="round"
       stroke-linejoin="round"
       stroke-width="2"
       id="circle4" />
    <circle
       cx="18"
       cy="7"
       r="2"
       stroke="#000"
       stroke-linecap="round"
       stroke-linejoin="round"
       stroke-width="2"
       id="circle6" />
    <circle
       cx="36"
       cy="21.3675"
       r="1"
       stroke="#000"
       stroke-linecap="round"
       stroke-linejoin="round"
       stroke-width="2"
       id="circle8" />
    <path
       fill="none"
       stroke="#000"
       stroke-linecap="round"
       stroke-linejoin="round"
       stroke-width="2"
       d="m 42,20 c 0,0 3,0 4,2"
       id="path10" />
    <circle
       cx="34"
       cy="42.3675"
       r="1"
       stroke="#000"
       stroke-linecap="round"
       stroke-linejoin="round"
       stroke-width="2"
       id="circle12" />
    <path
       fill="none"
       stroke="#000"
       stroke-linecap="round"
       stroke-linejoin="round"
       stroke-width="2"
       d="m 40,41 c 0,0 3,0 4,2"
       id="path14" />
    <polyline
       fill="none"
       stroke="#000"
       stroke-linecap="round"
       stroke-linejoin="round"
       stroke-width="2"
       points="28 20.385 18 22 28 24.077"
       id="polyline16" />
    <polyline
       fill="none"
       stroke="#000"
       stroke-linecap="round"
       stroke-linejoin="round"
       stroke-width="2"
       points="26 41.385 18 43 26 45.077"
       id="polyline18" />
    <path
       fill="none"
       stroke="#000"
       stroke-linecap="round"
       stroke-linejoin="round"
       stroke-width="2"
       d="M 58.6923,19.1538 C 61.6154,19.1538 66,16.6923 66,16.6923 v 9.8462 c 0,0 -2.9231,-4.9231 -7.3077,-2.4616 C 54.3077,26.5384 47,26.5385 47,26.5385 L 45.5385,29 H 38.2308 L 36.7692,26.5385 A 20.7985,20.7985 0 0 1 28,24.0769 v -3.6923 c 0,0 4.3846,-3.5555 8.7692,-3.5555 v -2.4616 c 0,0 9.0433,-3 17.5385,1.094 v 2.4616 a 7.0984,7.0984 0 0 0 4.3846,1.2307 z"
       id="path20" />
    <path
       fill="none"
       stroke="#000"
       stroke-linecap="round"
       stroke-linejoin="round"
       stroke-width="2"
       d="M 56.6923,40.1538 C 59.6154,40.1538 64,37.6923 64,37.6923 v 9.8462 c 0,0 -2.9231,-4.9231 -7.3077,-2.4616 C 52.3077,47.5384 45,47.5385 45,47.5385 L 43.5385,50 H 36.2308 L 34.7692,47.5385 A 20.7985,20.7985 0 0 1 26,45.0769 v -3.6923 c 0,0 4.3846,-3.5555 8.7692,-3.5555 v -2.4616 c 0,0 9.0433,-3 17.5385,1.094 v 2.4616 a 7.0984,7.0984 0 0 0 4.3846,1.2307 z"
       id="path22" />
  </g>
</g></svg>

<svg xmlns="http://www.w3.org/2000/svg" width="24" height="24" viewBox="0 0 24 24"> <g transform="scale(0.333333333)">  <g id="line">
    <line x1="18" x2="18" y1="67" y2="8" fill="none" stroke="#000" stroke-linecap="round" stroke-linejoin="round" stroke-width="2"/>
    <circle cx="18" cy="7" r="1" stroke="#000" stroke-linecap="round" stroke-linejoin="round" stroke-width="2"/>
    <circle cx="18" cy="7" r="2" stroke="#000" stroke-linecap="round" stroke-linejoin="round" stroke-width="2"/>
    <circle cx="36" cy="21.3675" r="1" stroke="#000" stroke-linecap="round" stroke-linejoin="round" stroke-width="2"/>
    <path fill="none" stroke="#000" stroke-linecap="round" stroke-linejoin="round" stroke-width="2" d="M42,20s3,0,4,2"/>
    <circle cx="34" cy="42.3675" r="1" stroke="#000" stroke-linecap="round" stroke-linejoin="round" stroke-width="2"/>
    <path fill="none" stroke="#000" stroke-linecap="round" stroke-linejoin="round" stroke-width="2" d="M40,41s3,0,4,2"/>
    <polyline fill="none" stroke="#000" stroke-linecap="round" stroke-linejoin="round" stroke-width="2" points="28 20.385 18 22 28 24.077"/>
    <polyline fill="none" stroke="#000" stroke-linecap="round" stroke-linejoin="round" stroke-width="2" points="26 41.385 18 43 26 45.077"/>
    <path fill="none" stroke="#000" stroke-linecap="round" stroke-linejoin="round" stroke-width="2" d="M58.6923,19.1538c2.9231,0,7.3077-2.4615,7.3077-2.4615v9.8462s-2.9231-4.9231-7.3077-2.4616S47,26.5385,47,26.5385L45.5385,29H38.2308l-1.4616-2.4615A20.7985,20.7985,0,0,1,28,24.0769V20.3846s4.3846-3.5555,8.7692-3.5555V14.3675s9.0433-3,17.5385,1.094v2.4616A7.0984,7.0984,0,0,0,58.6923,19.1538Z"/>
    <path fill="none" stroke="#000" stroke-linecap="round" stroke-linejoin="round" stroke-width="2" d="M56.6923,40.1538c2.9231,0,7.3077-2.4615,7.3077-2.4615v9.8462s-2.9231-4.9231-7.3077-2.4616S45,47.5385,45,47.5385L43.5385,50H36.2308l-1.4616-2.4615A20.7985,20.7985,0,0,1,26,45.0769V41.3846s4.3846-3.5555,8.7692-3.5555V35.3675s9.0433-3,17.5385,1.094v2.4616A7.0984,7.0984,0,0,0,56.6923,40.1538Z"/>
  </g></g></svg>
